svg/LeftHanded/all-scroll.svg

<?xml version="1.0" encoding="UTF-8" standalone="no"?>
<!-- Created with Inkscape (http://www.inkscape.org/) -->

<svg
   xmlns:dc="http://purl.org/dc/elements/1.1/"
   xmlns:cc="http://creativecommons.org/ns#"
   xmlns:rdf="http://www.w3.org/1999/02/22-rdf-syntax-ns#"
   xmlns:svg="http://www.w3.org/2000/svg"
   xmlns="http://www.w3.org/2000/svg"
   xmlns:xlink="http://www.w3.org/1999/xlink"
   version="1.0"
   width="500"
   height="500"
   viewBox="0 0 1000 1000"
   id="page"
   xml:space="preserve"><metadata
     id="metadata14"><rdf:RDF><cc:Work
         rdf:about=""><dc:format>image/svg+xml</dc:format><dc:type
           rdf:resource="http://purl.org/dc/dcmitype/StillImage" /><dc:title></dc:title></cc:Work></rdf:RDF></metadata><defs
     id="defs38"><linearGradient
       id="linearGradient2178"><stop
         id="stop2180"
         style="stop-color:#999999;stop-opacity:1"
         offset="0" /><stop
         id="stop2182"
         style="stop-color:#555555;stop-opacity:1"
         offset="1" /></linearGradient><linearGradient
       x1="231.98375"
       y1="128.61263"
       x2="231.98375"
       y2="755.79596"
       id="linearGradient2184"
       xlink:href="#linearGradient2178"
       gradientUnits="userSpaceOnUse"
       gradientTransform="translate(-2.475168e-5,0)" /><linearGradient
       x1="231.98375"
       y1="128.61263"
       x2="231.98375"
       y2="755.79596"
       id="linearGradient2184-8"
       xlink:href="#linearGradient2178-1"
       gradientUnits="userSpaceOnUse"
       gradientTransform="translate(-2.475168e-5,0)" /><linearGradient
       id="linearGradient2178-1"><stop
         id="stop2180-7"
         style="stop-color:#999999;stop-opacity:1"
         offset="0" /><stop
         id="stop2182-7"
         style="stop-color:#555555;stop-opacity:1"
         offset="1" /></linearGradient><filter
       x="-0.26190186"
       y="-0.22147858"
       width="1.5238037"
       height="1.4429572"
       color-interpolation-filters="sRGB"
       id="filter3793"><feGaussianBlur
         id="feGaussianBlur3795"
         stdDeviation="56.032546" /></filter></defs><path
     d="m 1321.018,968.56039 c -1.318,-23.067 10.722,-91.594 17,-116 9,-56.00001 6.5914,-115.87098 4.5914,-149.87098 -4,-22 -33.4211,-51.76451 -53.4731,-47.06451 -39,6 -34.8387,54.37634 -47.8387,102.37634 -5,14 -6.2796,55.55915 -8.2786,84.55915 -10e-4,-31 -12.7214,-168.55915 -21.7214,-195.55915 -9,-18 -31.376,-32.458 -50,-31 -16.075,1.259 -42.666,23.059 -52,52 -3.5,10.851 14.1064,181.30315 21.7224,201.55915 -9.391,-30.737 -48.7224,-157.55915 -93.7225,-175.55915 -36,0 -48.03096,25.75 -49.99996,60 -0.878,15.277 38.75646,156.40615 44.72246,170.55915 -6.913,-7.802 -19.002,-48 -41.00203,-78 -20,-32 -54.96774,-23.21506 -65.96774,-12.21506 -18,22 -19.03226,50.21506 15.96974,131.21506 -2,18 2.312,70.70901 13,103.00001 6.371,19.245 23.041,53.521 38,80 9.59503,16.984 22.11703,32.599 37.00003,45 20.629,17.19 41.905,25.447 67.3,27.63 30.605,2.633 61.664,2.855 92.207,-1.498 40.453,-5.766 77.122,-19.684 111.247,-44.924 38.259,-28.298 69.9,-88.91 91.421,-125.804 23.312,-39.966 26.38,-64.93901 23.382,-93.64601 -1.976,-18.916 16.441,-58.758 10.441,-77.758 -16,-22 -79,-38 -97,24"
     transform="matrix(1.2,0,0,1.2,-904.67229,-541.18554)"
     id="path1409-7"
     style="opacity:0.15;fill:#111111;fill-opacity:1;stroke:none;filter:url(#filter3793)" /><path
     d="m 650.24402,491.27316 c -1.318,-23.067 10.722,-91.594 17,-116 9,-56 6.5914,-115.87097 4.5914,-149.87097 -4,-22 -33.42112,-51.76451 -53.47312,-47.06451 -39,6 -34.83871,54.37634 -47.83871,102.37634 -5,14 -6.27957,55.55914 -8.27857,84.55914 -10e-4,-31 -12.72143,-168.55914 -21.72143,-195.55914 -9,-18 -31.376,-32.458 -50,-31 -16.075,1.259 -42.666,23.059 -52,52 -3.5,10.851 14.10643,181.30314 21.72243,201.55914 -9.391,-30.737 -48.72243,-157.55914 -93.72247,-175.55914 -36,0 -48.031,25.75 -50,60 -0.878,15.277 38.75643,156.40614 44.72243,170.55914 -6.913,-7.802 -19.002,-48 -41.002,-78 -20,-32 -54.96774,-23.21505 -65.96774,-12.21505 -18,22 -19.03226,50.21505 15.96974,131.21505 -2,18 2.312,70.709 13,103 6.371,19.245 23.041,53.521 38,80 9.595,16.984 22.117,32.599 37,45 20.62904,17.19 41.90504,25.447 67.30004,27.63 30.605,2.633 61.664,2.855 92.207,-1.498 40.453,-5.766 77.122,-19.684 111.247,-44.924 38.259,-28.298 69.9,-88.91 91.421,-125.804 23.312,-39.966 26.38,-64.939 23.382,-93.646 -1.976,-18.916 16.441,-58.758 10.441,-77.758 -16,-22 -79,-38 -97,24"
     id="path1409"
     style="opacity:0.75;fill:url(#linearGradient2184);fill-opacity:1;stroke:#000000;stroke-width:20;stroke-linecap:round;stroke-linejoin:round" /><path
     d="m 449.73616,527.95699 c 0,43.01075 17.68817,94.37634 17.68817,94.37634"
     id="path1391"
     style="opacity:0.75;fill:none;stroke:#000000;stroke-width:20;stroke-linecap:round;stroke-linejoin:round" /><path
     d="m 373.1125,573.33333 c 1.34409,30.91398 29,66 29,66"
     id="path1393"
     style="opacity:0.75;fill:none;stroke:#000000;stroke-width:20;stroke-linecap:round;stroke-linejoin:round" /><path
     d="m 538.1125,527.33333 c -8.06452,30.91398 3,84 3,84"
     id="path1395"
     style="opacity:0.75;fill:none;stroke:#000000;stroke-width:20;stroke-linecap:round;stroke-linejoin:round" /></svg>

<?xml version="1.0" encoding="UTF-8" standalone="no"?>
<!-- Created with Inkscape (http://www.inkscape.org/) -->
<svg
   xmlns:svg="http://www.w3.org/2000/svg"
   xmlns="http://www.w3.org/2000/svg"
   xmlns:xlink="http://www.w3.org/1999/xlink"
   version="1.0"
   width="500"
   height="500"
   viewBox="0 0 1000 1000"
   id="page"
   xml:space="preserve"><defs
     id="defs38"><linearGradient
       id="linearGradient2178"><stop
         id="stop2180"
         style="stop-color:#999999;stop-opacity:1"
         offset="0" /><stop
         id="stop2182"
         style="stop-color:#555555;stop-opacity:1"
         offset="1" /></linearGradient><linearGradient
       x1="231.98375"
       y1="128.61263"
       x2="231.98375"
       y2="755.79596"
       id="linearGradient2184"
       xlink:href="#linearGradient2178"
       gradientUnits="userSpaceOnUse"
       gradientTransform="translate(-2.475168e-5,0)" /></defs><path
     d="M 650.24402,491.27316 C 648.92602,468.20616 660.96602,399.67916 667.24402,375.27316 C 676.24402,319.27316 673.83542,259.40219 671.83542,225.40219 C 667.83542,203.40219 638.4143,173.63768 618.3623,178.33768 C 579.3623,184.33768 583.52359,232.71402 570.52359,280.71402 C 565.52359,294.71402 564.24402,336.27316 562.24502,365.27316 C 562.24402,334.27316 549.52359,196.71402 540.52359,169.71402 C 531.52359,151.71402 509.14759,137.25602 490.52359,138.71402 C 474.44859,139.97302 447.85759,161.77302 438.52359,190.71402 C 435.02359,201.56502 452.63002,372.01716 460.24602,392.27316 C 450.85502,361.53616 411.52359,234.71402 366.52355,216.71402 C 330.52355,216.71402 318.49255,242.46402 316.52355,276.71402 C 315.64555,291.99102 355.27998,433.12016 361.24598,447.27316 C 354.33298,439.47116 342.24398,399.27316 320.24398,369.27316 C 300.24398,337.27316 265.27624,346.05811 254.27624,357.05811 C 236.27624,379.05811 235.24398,407.27316 270.24598,488.27316 C 268.24598,506.27316 272.55798,558.98216 283.24598,591.27316 C 289.61698,610.51816 306.28698,644.79416 321.24598,671.27316 C 330.84098,688.25716 343.36298,703.87216 358.24598,716.27316 C 378.87502,733.46316 400.15102,741.72016 425.54602,743.90316 C 456.15102,746.53616 487.21002,746.75816 517.75302,742.40516 C 558.20602,736.63916 594.87502,722.72116 629.00002,697.48116 C 667.25902,669.18316 698.90002,608.57116 720.42102,571.67716 C 743.73302,531.71116 746.80102,506.73816 743.80302,478.03116 C 741.82702,459.11516 760.24402,419.27316 754.24402,400.27316 C 738.24402,378.27316 675.24402,362.27316 657.24402,424.27316"
     id="path1409"
     style="fill:url(#linearGradient2184);fill-opacity:1;stroke:#000000;stroke-width:20;stroke-linecap:round;stroke-linejoin:round" /><path
     d="M 449.73616,527.95699 C 449.73616,570.96774 467.42433,622.33333 467.42433,622.33333"
     id="path1391"
     style="opacity:1;fill:none;stroke:#000000;stroke-width:20;stroke-linecap:round;stroke-linejoin:round" /><path
     d="M 373.1125,573.33333 C 374.45659,604.24731 402.1125,639.33333 402.1125,639.33333"
     id="path1393"
     style="opacity:1;fill:none;stroke:#000000;stroke-width:20;stroke-linecap:round;stroke-linejoin:round" /><path
     d="M 538.1125,527.33333 C 530.04798,558.24731 541.1125,611.33333 541.1125,611.33333"
     id="path1395"
     style="opacity:1;fill:none;stroke:#000000;stroke-width:20;stroke-linecap:round;stroke-linejoin:round" /></svg>
